X:79
T:Nelson & Victory. WM.078
M:2/4
L:1/8
Q:1/2=90
S:Wm.Mittell’s MS, New Romney,Kent,1799
R:.Country Dance
O:England
A:Kent
Z:vmp.Chris Partington
W:Hand it cross,back it again,lead down the middle,right and left with
W:the 2nd couples
K:CDor
dBAB|FEDF|GBAc|BAGF|dBAB|FEDF|GBAc|B2B2:|!
|:g2ba|gfed|edcB|BAGF|GBAc|B2cd|ecBA|B2B2:|

